lib/svgs/team-location.svg

<?xml version="1.0" encoding="UTF-8" standalone="no"?>
<svg width="20px" height="20px" viewBox="0 0 20 20" version="1.1" xmlns="http://www.w3.org/2000/svg" xmlns:xlink="http://www.w3.org/1999/xlink">
    <defs></defs>
    <g id="Icons" stroke="none" stroke-width="1" fill="none" fill-rule="evenodd">
        <g id="Web" transform="translate(-385.000000, -2442.000000)" fill="#000000">
            <g id="team/team-location" transform="translate(385.000000, 2442.000000)">
                <path d="M16.6971688,17.125 L14.8221688,13.375 C14.6971688,13.125 14.5096688,13 14.2596688,13 L13.8846688,14.25 L15.1346688,16.75 L4.63466878,16.75 L5.88466878,14.25 L5.50966878,13 C5.25966878,13 5.07216878,13.125 4.94716878,13.375 L3.07216878,17.125 C2.94716878,17.3125 3.00966878,17.5625 3.07216878,17.75 C3.19716878,17.875 3.44716878,18 3.63466878,18 L16.1346688,18 C16.3221688,18 16.5721688,17.875 16.6971688,17.6875 C16.7596688,17.5 16.7596688,17.3125 16.6971688,17.125 M9.88466878,3 C7.44716878,3 4.88466878,4.875 4.88466878,8 C4.88466878,10.875 8.94716878,15.0625 9.44716878,15.5625 C9.57216878,15.6875 9.69716878,15.75 9.88466878,15.75 C10.0721688,15.75 10.1971688,15.6875 10.3221688,15.5625 C10.8221688,15.0625 14.8846688,10.875 14.8846688,8 C14.8846688,4.875 12.3221688,3 9.88466878,3 M9.88466878,9.875 C8.82216878,9.875 8.00966878,9.0625 8.00966878,8 C8.00966878,6.9375 8.82216878,6.125 9.88466878,6.125 C10.9471688,6.125 11.7596688,6.9375 11.7596688,8 C11.7596688,9.0625 10.9471688,9.875 9.88466878,9.875" id="Shape"></path>
            </g>
        </g>
    </g>
</svg>

<svg xmlns="http://www.w3.org/2000/svg" viewBox="0 0 20 20">
    <path fill="#000" fill-rule="evenodd" d="M16.697 17.125l-1.875-3.75c-.125-.25-.312-.375-.562-.375l-.375 1.25 1.25 2.5h-10.5l1.25-2.5L5.51 13c-.25 0-.438.125-.563.375l-1.875 3.75c-.125.188-.062.438 0 .625a.93.93 0 0 0 .563.25h12.5a.746.746 0 0 0 .562-.313.867.867 0 0 0 0-.562M9.885 3c-2.438 0-5 1.875-5 5 0 2.875 4.062 7.063 4.562 7.563.125.124.25.187.438.187a.567.567 0 0 0 .437-.188c.5-.5 4.563-4.687 4.563-7.562 0-3.125-2.563-5-5-5m0 6.875A1.842 1.842 0 0 1 8.01 8c0-1.063.812-1.875 1.875-1.875 1.062 0 1.875.813 1.875 1.875a1.842 1.842 0 0 1-1.875 1.875"/>
</svg>
